X:16
T:Sarah's Waltz
Z:robin.beech@mcgill.ca
R:waltz
M:3/4
L:1/4
K:G
f | g>g g | fBd | e>e e | dBA | G>G G | GAB | A>B A | G2 D |:
G>G G | GEG | A>BA | FDD | G>G G | G E/G/ B/d/ | e>fe | d>d e/f/ |
g>g g | fBd | e>ee |dBA | G>G G | GAB | A>BA |1 G2 D :|2 G2 B, |:
E>EE | EGB | (3A/B/A/ GF | E2G/A/ | B2G/A/ | B2G/A/ | BAG | F2 B, |
E>EE | EGB | (3A/B/A/ GF | E2 G/A/ | B>B B | eBG | (3A/B/A/ GF |1 E2 B, :|2 E2 D |
G>G G | GEG | A>BA | FDD | G>G G | G E/G/ B/d/ | e>fe | d>d e/f/ |
g>g g | fBd | e>ee |dBA | G>G G | GAB | A>BA | G2 A/B/ |
:| cec | BA B/A/ | GBG | FDB, | EC/E/ C/E/ | F D/F/ D/F/ | G E/G/ E/G/ |1 A2 A/B/ :|2 ABD |:
G>G G | GEG | A>BA | FDD | G>G G | G E/G/ B/d/ | e>fe | d>d e/f/ |
g>g g | fBd | e>ee |dBA | G>G G | GAB | A>BA | G2 e/f/  ||
 g>g g | fBd | e>e e | dBA | G>G G | GAB | A>B A | G6 |]
